X:5
T:Junior Crehan's Favourite
T:The Knotted Cord
T:The Knot on the Cord
C:trad. arr. Quilty
R:reel
H:transcribed by Henrik Norbeck
Z:id:Quilty-%X
M:C|
K:Ador
~A3B AE~E2|A2 (3Bcd edBA|~G3A GEDE|~G2BG dGBG|
~A3B AE~E2|A2 (3Bcd edBA|~G2Bd ef{a}ge|1 dBGA {c}BAdB:|2 dBGA {c}BA{c}A2||
e2{c'}ag ea{c'}ag|ea~a2 {c'}aged|eg~g2 eg{a}gf|~g3a gedg|
e2{c'}ag ea{c'}ag|~a3b aged|~B3d ga{c'}ba|gedB {c}BA{c}A2|
e2{c'}ag ea{c'}ag|ea~a2 {c'}aged|eg~g2 eg~g2|dg~g2 bgag|
e2{c'}ag ea{c'}ag|~a3b aged|~B3d ga{c'}ba|gedB {c}BA{c}AG||
